X: 4090
T: Blockhouse Dutchman
R: hornpipe
M: 4/4
K: Dmajor
|:D>F AF|Ac c/B/A|GE BE|dB GB|
AA/B/ cA|Ac e/d/c|1 d2 dB|f/g/f/e/ d/c/B/A/:|2 d2 e/d/c|d>A d/e/f/g/||
|:ag fg/f/|e2 d2|c2 Bc/B/|A2- AB|
AA/B/ c/B/A|Ac ec|1 d2 e/d/c|d>A d/e/f/g:|2 d2 e/d/c|d2- d2||

